client/public/img/game/shared/obstacles/confetti_grenade_box.svg

<svg width="92" height="92" viewBox="0 0 92 92" fill="none" xmlns="http://www.w3.org/2000/svg">
<path d="M89.1715 2.625H2.625V89.1715H89.1715V2.625Z" fill="#AB7166"/>
<path d="M16.8018 2.89648V88.443" stroke="#301C24" stroke-width="5.22" stroke-linecap="round" stroke-linejoin="round"/>
<path d="M89.1715 2.625H2.625V89.1715H89.1715V2.625Z" stroke="#301C24" stroke-width="5.22" stroke-linecap="round" stroke-linejoin="round"/>
<path d="M74.375 3.44531V89.0752" stroke="#301C24" stroke-width="5.22" stroke-linecap="round" stroke-linejoin="round"/>
<path d="M19.3154 17H72.801" stroke="#301C24" stroke-width="5.22" stroke-linecap="round" stroke-linejoin="round"/>
<path d="M19.2236 74.5781H72.5439" stroke="#301C24" stroke-width="5.22331" stroke-linecap="round" stroke-linejoin="round"/>
<path d="M60.3865 83.3666C60.5908 84.0599 61.1357 84.6003 61.8306 84.7989C62.5255 84.9975 63.2737 84.8266 63.8135 84.346L82.0823 68.0804C82.5886 67.6297 82.8475 66.9631 82.7781 66.2887C82.7088 65.6144 82.3197 65.0144 81.7322 64.6761L79.3564 63.3078L78.2409 60.7502C77.9706 60.1304 77.4196 59.6777 76.7591 59.5328C76.0987 59.3879 75.4088 59.5682 74.9038 60.0179L56.635 76.2835C56.0977 76.7618 55.8412 77.4809 55.9544 78.1913C56.0675 78.9017 56.5348 79.5055 57.1941 79.7932L59.6491 80.8646L60.3865 83.3666Z" fill="#D4B4BD" stroke="#301C24" stroke-width="4.22" stroke-linecap="round" stroke-linejoin="round"/>
<path d="M9.38024 15.4488C8.78069 15.8525 8.42946 16.5349 8.4494 17.2574C8.46934 17.9798 8.85768 18.6418 9.47858 19.0118L30.4919 31.532C31.0743 31.879 31.7879 31.925 32.41 31.6558C33.0322 31.3865 33.487 30.8347 33.6327 30.1727L34.2217 27.4952L36.3245 25.6612C36.8341 25.2168 37.0998 24.555 37.0391 23.8815C36.9784 23.2081 36.5985 22.6045 36.0176 22.2584L15.0043 9.73814C14.3863 9.36994 13.6233 9.34194 12.98 9.66385C12.3367 9.98575 11.9017 10.6132 11.826 11.3286L11.5439 13.9922L9.38024 15.4488Z" fill="#D4B4BD" stroke="#301C24" stroke-width="4.22" stroke-linecap="round" stroke-linejoin="round"/>
<path fill-rule="evenodd" clip-rule="evenodd" d="M43.5092 30.1231L43.1299 30.3421L42.422 30.1955L37.6397 32.9565L38.0596 35.2416C36.8089 36.2553 36.1597 37.8024 36.2522 39.3545L34.1076 42.1441L36.7943 51.9646L39.5546 51.4826L36.9525 41.8077L37.0234 41.7148C37.4887 42.4414 38.1175 43.0071 38.8333 43.3908C39.3252 43.6544 39.8584 43.8327 40.4076 43.9188C40.3707 44.174 40.3548 44.4325 40.3607 44.6918C40.3637 44.8239 40.372 44.9557 40.3859 45.0873C40.4537 45.719 40.6512 46.347 40.9892 46.9325L47.4862 58.1855C47.6774 58.5168 47.903 58.8159 48.1557 59.081C49.1791 60.1542 50.6489 60.6704 52.0953 60.5024C52.1698 60.494 52.2438 60.483 52.3182 60.4709C52.8735 60.3796 53.4116 60.1851 53.8989 59.9038L59.3522 56.7553C59.6658 56.5742 59.9507 56.3626 60.205 56.1262C60.4149 55.9304 60.6044 55.7203 60.7723 55.4926C61.641 54.3241 61.9289 52.7931 61.5112 51.3702C61.4082 51.0198 61.2621 50.6745 61.0704 50.3426L54.5735 39.0896C54.2355 38.5041 53.7904 38.0191 53.2772 37.6445C52.2637 36.9052 50.9854 36.599 49.7418 36.804C49.1998 36.8937 48.6646 37.0804 48.1608 37.3713L47.431 37.7926L46.8067 36.7113L45.7625 37.3141C45.6699 37.0712 45.5565 36.8315 45.4223 36.5991C45.2656 36.3277 45.087 36.0766 44.8895 35.847L45.7683 35.3396L45.9531 35.232L44.1845 33.2482L44.4585 30.7512C44.5654 30.7646 44.6732 30.7639 44.7807 30.75C45.1146 30.7064 45.4208 30.5273 45.6264 30.2617C45.7285 30.1286 45.8031 29.9768 45.8468 29.815C45.8901 29.6533 45.9016 29.4849 45.8793 29.3188C45.8136 28.8125 45.436 28.3851 44.9453 28.2536C44.4483 28.1213 43.917 28.3035 43.6025 28.7093C43.5322 28.8009 43.4747 28.9014 43.4318 29.008C43.289 29.3708 43.3133 29.7838 43.5092 30.1231ZM38.1931 40.1732L38.815 39.3541L41.7944 37.633L42.1417 37.4334L43.3339 36.7452C43.5551 36.9533 43.7497 37.1961 43.9093 37.4726C44.0456 37.7087 44.1477 37.9548 44.2181 38.2058L42.8104 39.0185L43.4348 40.0998L42.7075 40.5197C42.3964 40.6994 42.1133 40.91 41.8599 41.1438C41.5192 41.4605 41.2337 41.8259 40.9957 42.2251C40.66 42.2071 40.3294 42.1362 40.017 42.0153C39.3656 41.7639 38.7927 41.2958 38.4163 40.644C38.3701 40.5639 38.3273 40.4825 38.2893 40.4007C38.2549 40.3262 38.2344 40.2448 38.1931 40.1732Z" fill="#F297B1"/>
</svg>

<svg width="92" height="92" fill="none" xmlns="http://www.w3.org/2000/svg">
    <path d="M89.171 2.625H2.625v86.546h86.546V2.625Z" fill="#AB7166"/>
    <path d="M16.802 3.746V88.05M88.25 3.75H3.75v84.5h84.5zM74.375 3.746v84.508" stroke="#301c24" stroke-width="5.22" stroke-linecap="round" stroke-linejoin="round" style="stroke-width:7.5;stroke-dasharray:none"/>
    <path d="M19.315 17h53.486" stroke="#301C24" stroke-width="5.22" stroke-linecap="round" stroke-linejoin="round" style="stroke-width:7.5;stroke-dasharray:none"/>
    <path d="M19.224 74.578h53.32" stroke="#301C24" stroke-width="5.223" stroke-linecap="round" stroke-linejoin="round" style="stroke-width:7.5;stroke-dasharray:none"/>
    <path d="M58.002 78.288a2.11 2.11 0 0 0 3.427.98L79.7 63.002a2.11 2.11 0 0 0-.35-3.404l-2.377-1.368-1.115-2.558a2.11 2.11 0 0 0-3.337-.732L54.25 71.205a2.11 2.11 0 0 0 .56 3.51l2.455 1.071zM17.879 39.187a2.11 2.11 0 0 0 3.535-.45L31.8 16.59a2.11 2.11 0 0 0-1.663-2.991l-2.723-.322-2.032-1.911a2.11 2.11 0 0 0-3.356.641L11.64 34.154a2.11 2.11 0 0 0 1.897 3.006l2.678.017z" fill="#d4b4bd" stroke="#301c24" stroke-width="4.22" stroke-linecap="round" stroke-linejoin="round"/>
    <path fill-rule="evenodd" clip-rule="evenodd" d="m43.51 30.123-.38.22-.708-.148-4.782 2.761.42 2.286a4.922 4.922 0 0 0-1.808 4.113l-2.144 2.79 2.686 9.82 2.76-.482-2.602-9.675.071-.093a4.887 4.887 0 0 0 1.81 1.676 4.963 4.963 0 0 0 1.575.528 4.66 4.66 0 0 0-.022 1.168c.068.632.265 1.26.603 1.845l6.497 11.253a4.705 4.705 0 0 0 4.832 2.285 4.696 4.696 0 0 0 1.58-.566l5.454-3.149a4.711 4.711 0 0 0 1.42-1.262 4.705 4.705 0 0 0 .298-5.15L54.574 39.09a4.681 4.681 0 0 0-1.297-1.446 4.686 4.686 0 0 0-5.116-.273l-.73.422-.624-1.082-1.044.603a4.974 4.974 0 0 0-.873-1.467l.878-.507.185-.108-1.769-1.984.275-2.497a1.273 1.273 0 0 0 1.388-.936c.043-.162.055-.33.032-.496a1.287 1.287 0 0 0-.934-1.065 1.286 1.286 0 0 0-1.513.754 1.29 1.29 0 0 0 .077 1.115Zm-5.317 10.05.622-.819 2.98-1.721.347-.2 1.192-.688a3.176 3.176 0 0 1 .884 1.46l-1.408.814.625 1.08-.727.42c-.312.18-.595.391-.848.625-.34.317-.626.682-.864 1.081a3.185 3.185 0 0 1-.979-.21 3.156 3.156 0 0 1-1.728-1.614c-.034-.075-.055-.156-.096-.228Z" fill="#F297B1"/>
</svg>
